!!!COM: Mozart, Wolfgang Amadeus
!!!CDT: 1756///-1791///
!!!OTP: Viennese Sonatina No. 6 in C-major
!!!OTL: Sonatina in C-major
!!!OMV: No. 2
!!!GNM: No. 6
!!!OMD: Menuet and Trio
!!!AIN: piano
**kern	**kern	**dynam
*staff2	*staff1	*staff1
*Ipiano	*Ipiano	*Ipiano
*>[A,A,B,B,C,C,D,D,A,B,X]	*>[A,A,B,B,C,C,D,D,A,B,X]	*>[A,A,B,B,C,C,D,D,A,B,X]
*>A	*>A	*>A
*clefF4	*clefG2	*clefG2
*k[]	*k[]	*k[]
*C:	*C:	*C:
*M3/4	*M3/4	*M3/4
*MM116	*MM116	*MM116
4r	(4gg\	p
=1	=1	=1
2.C\ 2.G\	4ff\	.
.	4ee\	.
.	4ff\	.
=2	=2	=2
2.F\ [2.G\	4ee\	.
.	4dd\	.
.	4b\	.
=3	=3	=3
&(4E\&) 4G\]	4cc\	.
4D\ 4B\	4ff\	.
4C\ 4c\	4ee\	.
=4	=4	=4
*^	*	*
(4c/	2G\	4ee\	.
4B/)	.	4dd\)	.
4r	4B'\	4dd'\	f
*v	*v	*	*
=5	=5	=5
4c'\	4ee'\	.
4A'\ 4c'\	4ff#'\	.
4B'\ 4d'\	4gg#'\	.
=6	=6	=6
4c\ 4e\	(4.aa\	.
4c\ 4e\	.	.
.	8bb\	.
4r	4ccc\)	.
=7	=7	=7
4D\ 4c\	(4.dd\	>
4D\ 4c\	.	.
.	8ee\	.
4r	4ff#\	.
=8	=8	=8
8G\ (8B\L	4gg\)	p
8d\	.	.
8G\ 8B\	4r	.
8d\	.	.
8G\ 8B\	4r	.
8d\J)	.	.
=9	=9	=9
8G\ 8c\L	(8dd\L	p
8d\	8ee\	.
8G\ 8c\	8ff#\	.
8d\	8gg\	.
8G\ 8c\	8aa\	.
&(8d\J&)	8ff#\J	.
=10	=10	=10
8G\ (8B\L	4gg\)	.
8d\	.	.
8G\ 8B\	4r	.
8d\	.	.
8G\ 8B\	4r	.
8d\J)	.	.
=11	=11	=11
8G\ 8c\L	(8dd\L	.
8d\	8ee\	.
8G\ 8c\	8ff#\	.
8d\	8gg\	.
8G\ 8c\	8aa\	.
8d\J	8ff#\J	.
=12	=12	=12
4G\ &(4B\&)	4gg\)	.
4r	4r	.
=:|!|:	=:|!|:	=:|!|:
*>B	*>B	*>B
4G'\	4gg'\	f
=13	=13	=13
(4D\	(4dd\	.
4C#/)	4cc#\)	.
4G'\	4gg'\	.
=14	=14	=14
(4BB-/	4b-\	.
4AA/)	4a/	.
4r	[4gg\ [4bb-\	p
=15	=15	=15
(4AA/	4gg\] 4bb-\]	.
4BBn/	4ff'\ 4aa'\	<
4C#/	[4ee\ [4gg\	.
=16	=16	=16
4.D\	4ee\] 4gg\]	.
.	4dd'\ 4ff'\	.
8E\	.	.
4F\)	4cc\ [4aa\	.
=17	=17	=17
(4GG/	4b\ 4aa\]	<
4AA/	4cc'\ 4gg'\	.
4BB/	[4dd\ [4ff\	.
=18	=18	=18
4.C/	4dd\] 4ff\]	.
.	4cc'\ 4ee'\	.
8D\	.	.
4E\)	4b-\ [4gg\	.
=19	=19	=19
*	*^	*
2F\	4gg/]	2a\	.
.	4ff/	.	.
4FF/	4dd/	4f\	.
=20	=20	=20	=20
4GG/	4cc/	4e\	.
&(4G\&)	&(4b/&)	4d\	.
4r	(4gg\	4r	mp
*	*v	*v	*
=21	=21	=21
2.C\ 2.G\	4ff\	.
.	4ee\	.
.	4ff\	.
=22	=22	=22
*^	*	*
2.G#/	2BB\	4ee\	.
.	.	4dd\	.
.	4E\	4b\	.
*v	*v	*	*
=23	=23	=23
4AA\ &(4A\&)	4cc\	.
4D\ 4B\	4ff\	.
4C\ 4c\	4ee\	.
=24	=24	=24
*^	*	*
(4c/	2G\	4ee\	.
4B/)	.	4dd\)	.
4GG'/	4r	4b'\ 4dd'\	f
*v	*v	*	*
=25	=25	=25
4C'/	4cc'\ 4ee'\	.
4D'\	4cc'\ 4ff'\	.
4E'\	4cc'\ 4gg'\	.
=26	=26	=26
*	*^	*
(4F\	(4.aa/	2.cc\	.
4G\	.	.	.
.	8bb/	.	.
4A\	4ccc/)	.	.
*	*v	*v	*
=27	=27	=27
4G\)	4.cc\ 4.ee\	>
4GG/	.	.
.	8gg\	.
4G\	8b\ 8ff\L	.
.	8dd\J	.
=28	=28	=28
8C\ (8E\L	&(4cc\&)	p
8G\	.	.
8C\ 8E\	4r	.
8G\	.	.
8C\ 8E\	4r	.
8G\J)	.	.
=29	=29	=29
8C\ 8F\L	(8b\L	p
8G\	8cc\	.
8C\ 8F\	8dd\	.
8G\	8ee\	.
8C\ 8F\	8ff\	.
&(8G\J&)	8dd\J	.
=30	=30	=30
8C\ 8E\L	8gg\L	>
8G\	8ccc\	.
8C\ 8E\	8bb\	.
8G\	8bb-\	.
8C\ 8E\	8aa\	.
&(8G\J&)	8aa-\J	.
=31	=31	=31
8C\ 8F\L	8gg\L	.
8G\	8ff#\	.
8C\ 8F\	8ffn\	.
8G\	8ee\	.
8C\ 8F\	8ff\	.
8G\J	8dd\J	.
=32	=32	=32
&(4E\&)	4cc\)	p
4r	4r	.
=33:|!	=33:|!	=33:|!
!! Trio section
*>C	*>C	*>C
*k[f#]	*k[f#]	*k[f#]
*G:	*G:	*G:
*M3/4	*M3/4	*M3/4
4G'\	2g/ (2b/	p
4G'\	.	.
4G'\	4a\ 4cc\)	.
=34	=34	=34
4G'\	4b'\ 4dd'\	f
4C'/	4cc'\ 4ee'\	.
4r	4r	.
=35	=35	=35
4D'\	4.f#/ (4.a/	p
4D'\	.	.
.	8g/ 8b/	.
4D'\	4a\ 4cc\)	.
=36	=36	=36
4D'\	8b\ (8dd\L	>
.	8a\ 8cc\J	.
4G'\	4g/ 4b/)	.
4r	4r	.
=37	=37	=37
4D'\	8r	.
.	(8ff#\L	f
4AA'/	8ee\	.
.	8dd\	.
4F#'\	8cc#\	.
.	8dd\J)	.
=38	=38	=38
4E'\	8r	.
.	(8gg\L	.
4AA'/	8ff#\	.
.	8ee\	.
4G'\	8dd\	.
.	8cc#\J)	.
=39	=39	=39
4F#'\	8r	.
.	(8aa\L	.
4AA'/	8gg\	.
.	8ff#\	.
4F#'\	8ee\	.
.	8dd\J)	.
=40	=40	=40
4E'\	8r	.
.	(8gg\L	.
4AA'/	8ff#\	.
.	8ee\	.
4G'\	8dd\	.
.	8cc#\J	.
=41	=41	=41
4F#'\	4dd\)	p
4F#'\ 4d'\	4aa'\	.
4E'\ 4c#'\	4aa#'\	.
=42	=42	=42
4D'\ 4B'\	4bb'\	.
4C#'\ 4A#'\	4ccc#'\	.
4BB'\ 4G#'\	4ddd'\	.
=43	=43	=43
4AA'/	4.dd\ (4.ff#\	p
4A'\	.	.
.	8aa\	.
4AA'/	8cc#\ 8gg\L	.
.	8ee\J	.
=44	=44	=44
4D'\	4dd\)	.
4d'\	4r	.
4r	4r	.
=45:|!|:	=45:|!|:	=45:|!|:
*>D	*>D	*>D
4r	2.dd\	p
4D\ (4B-\	.	.
4Fn\ 4A\)	.	.
=46	=46	=46
4E'\ 4G#'\	4dd'\	f
4AA'\ 4A'\	4cc#'\	.
4r	4r	.
=47	=47	=47
4r	2.ccn\	p
4Cn\ (4A\	.	.
4E-\ 4Gn\)	.	.
=48	=48	=48
4D'\ 4F#'\	4cc'\	f
4GG'/ 4G'/	4b'\	.
4r	4r	.
=49	=49	=49
(4C/	2cc\ (2ee\	p
4c'\)	.	.
4c'\	4dd\ 4ffn\)	.
=50	=50	=50
4c'\	4ee'\ 4gg'\	f
4Fn'\	4ffn'\ 4aa'\	.
4r	4r	.
=51	=51	=51
*	*^	*
4G'\	(4.dd/	2.b\	p
4G'\	.	.	.
.	8ee/	.	.
4G'\	4ffn/)	.	.
=52	=52	=52	=52
4G#'\	(4ffn/	4.b\	.
4G#'\	[2ee/)	.	.
.	.	8cc\	.
4G#'\	.	&(4dd\&)	.
=53	=53	=53	=53
4A'\	(4ee/]	4dd\	.
4A'\	8aa/L	2cc\	<
.	8gg/	.	.
4Gn'\	8ff#/	.	.
.	8ee/J	.	.
*	*v	*v	*
=54	=54	=54
4F#'\	2cc\ 2dd\)	.
4F#'\	.	.
4F#'\	8.b\ (8.dd\L	.
.	16a\ 16cc\Jk)	.
=55	=55	=55
4G'\	2g/ (2b/	p
4G'\	.	.
4G'\	4a\ 4cc\)	.
=56	=56	=56
4G'\	4b'\ 4dd'\	f
4C'/	4cc'\ 4ee'\	.
4r	4r	.
=57	=57	=57
4D'\	4.f#/ (4.a/	p
4D'\	.	.
.	8g/ 8b/	.
4D'\	4a\ 4cc\)	.
=58	=58	=58
4D'\	8b\ (8dd\L	>
.	8a\ 8cc\J	.
4G'\	4g/ 4b/)	.
4r	4r	.
=59	=59	=59
4G'\	8r	.
.	(8dd\L	f
4D'\	8cc\	.
.	8b\	.
4B'\	8a\	.
.	8g\J)	.
=60	=60	=60
4A'\	8r	.
.	8cc/L	.
4D'\	(8b/	.
.	8a/	.
4c'\	8g/	.
.	8f#/J)	.
=61	=61	=61
4B'\	8r	.
.	(8ddd\L	p
4D'\	8ccc\	.
.	8bb\	.
4B'\	8aa\	.
.	8gg\J)	.
=62	=62	=62
4A'\	8r	.
.	(8ccc\L	.
4D'\	8bb\	.
.	8aa\	.
4c'\	8gg\	.
.	8ff#\J	.
=63	=63	=63
(8B\L	4gg\)	<
8d\	.	.
8c\	4r	.
8B\	.	.
8A\	4b'\ 4gg'\	f
8G\J)	.	.
=64	=64	=64
8r	4dd'\ 4bb'\	.
(8G\L	.	.
8F#\	4r	.
8E\	.	.
8D\	4g'/ 4b'/	>
8C#\J	.	.
=65	=65	=65
4D\)	4.g/ 4.b/	.
4d'\	.	.
.	8dd\	.
4D'\	8f#/ 8cc/L	.
.	&(8a/J&)	.
=66	=66	=66
8G\ 8B\L	4g/	p
8d\	.	.
8G\ 8B\	8r	.
8d\	(8gg\L	.
8G\ 8c\	8ff#\	.
&(8d\J&)	8aa\J	.
=67	=67	=67
8G\ 8B\L	4gg\)	.
8d\	.	.
8G\ 8B\	8r	.
8d\	(8gg\L	.
8G\ 8c\	8ff#\	.
8d\J	8aa\J	.
=68	=68	=68
4G'\ &(4B'\&)	4gg\)	.
4GG'/	4r	.
4r	4r	.
*>X	*>X	*>X
==:|!	==:|!	==:|!
*-	*-	*-
!!!ENC: Craig Stuart Sapp
!!!END: 2004/11/17/
